X: 29416
T: Niel Gow's Lament For His Second Wife
R: jig
M: 6/8
K: Gmajor
G/E/|D>EG {GF}G>AG|A<Bd e2g/e/|d>BG {AB}A>GA|{GA}BGE E2G/E/|
D>EG {GA}G>AG|A<Bd g2 e/d/|d>BG {=F}E2 D|E<GG G2:|
(3d/e/f/|g>bg {fg}afd|{ef}e/d/e/f/{ef}g ed/c/B/A/G/|{AB}A>GA {GA}B>AG|{G}BGE E2 (3d/e/f/|
g>bg {fg}afd|e/d/e/f/{ef}g ed/c/B/A/G/|{AB}A>GA {GA}BGE|D<GG [G2D2] (3d/e/f/|
{a}g>bg afd|e/d/e/f/{ef}g ed/c/B/A/G/|B/G/d/B/g/d/ e/d/c/B/A/G/|{GA}BAA A2G/E/|
D>EG G>AG|A<Bd g2 e/d/|d>BG {=F}E2D|E<GG [G2D2]|

